source/icons/vk.svg

<svg width="29" height="22" viewBox="0 0 29 22" fill="none" xmlns="http://www.w3.org/2000/svg">
<g clip-path="url(#clip0_87520_332)">
<path d="M1.5 5.33876C1.5 4.48373 2.0151 4.02268 3.04531 3.95562L7.01515 3.98077C7.28158 3.98077 7.45921 4.10651 7.54802 4.35799C7.95655 5.61538 8.41392 6.70094 8.92014 7.61465C9.42637 8.52835 10.088 9.58038 10.9051 10.7707C10.9761 10.9216 11.0916 10.997 11.2514 10.997C11.3758 10.997 11.4735 10.9384 11.5445 10.821L11.6244 10.5444L11.6511 6.19379C11.6511 5.89201 11.5756 5.69083 11.4246 5.59024C11.2736 5.48965 10.9939 5.4142 10.5853 5.36391C10.2656 5.31361 10.1058 5.12919 10.1058 4.81065C10.1058 4.74359 10.1146 4.69329 10.1324 4.65976C10.5054 3.57002 11.5711 3.02515 13.3296 3.02515L14.8216 3C15.4966 3 16.0561 3.15927 16.5001 3.47781C16.9442 3.79635 17.1662 4.29931 17.1662 4.98669V10.6953C17.2906 10.7791 17.406 10.821 17.5126 10.821C17.779 10.821 18.0099 10.6701 18.2053 10.3683C20.1592 7.78649 21.216 6.05966 21.3759 5.18787C21.3759 5.1711 21.3936 5.12919 21.4291 5.06213C21.5535 4.81065 21.7577 4.5927 22.0419 4.40828C22.3261 4.22387 22.5748 4.09813 22.788 4.03107C22.859 3.99753 22.9389 3.98077 23.0277 3.98077H27.1574L27.4239 4.00592C27.7791 4.00592 28.0544 4.16519 28.2498 4.48373C28.3209 4.58432 28.3697 4.69329 28.3964 4.81065C28.423 4.92801 28.4408 5.04536 28.4496 5.16272C28.4585 5.28008 28.463 5.34714 28.463 5.36391V5.53994C28.3386 6.22732 28.0233 6.9608 27.5171 7.74038C27.0109 8.51997 26.367 9.36243 25.5855 10.2678C24.804 11.1731 24.3155 11.7682 24.1201 12.0533C23.9603 12.2544 23.8803 12.4389 23.8803 12.6065C23.8803 12.7406 23.9514 12.8915 24.0935 13.0592L27.9834 17.6864C28.1965 17.9546 28.3031 18.248 28.3031 18.5666C28.3031 18.9522 28.1432 19.2707 27.8235 19.5222C27.5038 19.7737 27.1219 19.9162 26.6779 19.9497L26.2249 19.9749H22.1752C22.1574 19.9749 22.1219 19.979 22.0686 19.9874C22.0153 19.9958 21.9798 20 21.962 20C21.5712 20 21.2071 19.8407 20.8696 19.5222C20.7453 19.3881 19.9105 18.3989 18.3652 16.5547C18.2764 16.4374 18.152 16.3284 17.9922 16.2278C17.9211 16.4961 17.8279 16.8817 17.7124 17.3846C17.597 17.8876 17.5126 18.248 17.4593 18.466L17.3794 18.8935C17.2018 19.4803 16.8287 19.8323 16.2604 19.9497L15.8874 19.9749H13.2763C11.8021 19.9749 10.3322 19.3378 8.86686 18.0636C7.40148 16.7894 6.08264 15.1423 4.91034 13.122C3.73803 11.1018 2.64566 8.75049 1.63322 6.06805C1.54441 5.8501 1.5 5.607 1.5 5.33876ZM17.5126 11.8521C17.1396 11.8521 16.8021 11.7557 16.5001 11.5629C16.1982 11.3701 16.0472 11.106 16.0472 10.7707V4.98669C16.0472 4.65138 15.9584 4.41248 15.7808 4.26997C15.6032 4.12747 15.2923 4.05621 14.8483 4.05621L13.3296 4.10651C12.5658 4.10651 11.9886 4.23225 11.5978 4.48373C12.3793 4.8358 12.7701 5.40582 12.7701 6.19379V10.6198C12.7346 11.039 12.5569 11.3868 12.2372 11.6635C11.9175 11.9401 11.5623 12.0784 11.1715 12.0784C10.6386 12.0784 10.2301 11.8353 9.94591 11.3491C8.56046 9.37081 7.53025 7.4931 6.85529 5.71598L6.6155 5.06213L3.07195 5.03698C2.84104 5.03698 2.71227 5.04956 2.68562 5.0747C2.65898 5.09985 2.64566 5.1711 2.64566 5.28846C2.64566 5.43935 2.66342 5.59862 2.69895 5.76627L3.25845 7.17456C4.75048 10.8126 6.37127 13.6795 8.12085 15.7751C9.87042 17.8708 11.5889 18.9186 13.2763 18.9186H15.9406C16.0472 18.9186 16.1271 18.8893 16.1804 18.8306C16.2337 18.7719 16.2781 18.6588 16.3136 18.4911L16.3669 18.2396L16.8732 16.0266C17.0152 15.7249 17.1396 15.5237 17.2462 15.4231C17.4415 15.2387 17.6725 15.1465 17.9389 15.1465C18.3652 15.1465 18.8003 15.3895 19.2444 15.8757L21.5091 18.5917C21.6512 18.8097 21.8022 18.9186 21.962 18.9186H26.3581C26.891 18.9186 27.1574 18.7929 27.1574 18.5414C27.1574 18.4576 27.1308 18.3738 27.0775 18.2899L23.2142 13.7382C22.9123 13.3861 22.7613 13.0089 22.7613 12.6065C22.7613 12.2041 22.9034 11.8185 23.1876 11.4497C23.4185 11.1144 23.867 10.557 24.5331 9.77737C25.1992 8.99778 25.7809 8.26849 26.2782 7.5895C26.7756 6.9105 27.1042 6.29438 27.264 5.74112L27.3439 5.4142C27.3262 5.38067 27.3173 5.32618 27.3173 5.25074C27.3173 5.1753 27.3084 5.11243 27.2907 5.06213H23.1077C22.8412 5.16272 22.6281 5.31361 22.4682 5.51479L22.3084 5.9926C21.8643 7.14941 20.7009 8.93491 18.8181 11.3491C18.4451 11.6844 18.0099 11.8521 17.5126 11.8521Z" fill="#666666"/>
</g>
<defs>
<clipPath id="clip0_87520_332">
<rect width="28" height="22" fill="white" transform="translate(0.5)"/>
</clipPath>
</defs>
</svg>

<svg xmlns="http://www.w3.org/2000/svg" fill="none" viewBox="0 0 29 22"><g clip-path="url(#a)"><path fill="#666" d="M1.5 5.339c0-.855.515-1.316 1.545-1.383l3.97.025a.52.52 0 0 1 .533.377c.409 1.257.866 2.343 1.372 3.257.506.913 1.168 1.965 1.985 3.156.071.15.187.226.346.226.125 0 .223-.059.293-.176l.08-.277.027-4.35c0-.302-.075-.503-.226-.604-.151-.1-.431-.176-.84-.226-.32-.05-.48-.235-.48-.553 0-.067.01-.118.027-.151.373-1.09 1.44-1.635 3.198-1.635L14.822 3c.675 0 1.234.16 1.678.478.444.318.666.821.666 1.509v5.708c.125.084.24.126.347.126.266 0 .497-.15.692-.453 1.954-2.582 3.011-4.308 3.17-5.18 0-.017.019-.059.054-.126.125-.251.329-.47.613-.654.284-.184.533-.31.746-.377a.554.554 0 0 1 .24-.05h4.13l.266.025c.355 0 .63.16.826.478.07.1.12.21.146.327.027.117.045.234.054.352.009.117.013.184.013.2v.177c-.124.687-.44 1.42-.946 2.2-.506.78-1.15 1.622-1.931 2.528-.782.905-1.27 1.5-1.466 1.785-.16.201-.24.386-.24.553 0 .135.071.286.213.453l3.89 4.627c.213.269.32.562.32.88 0 .386-.16.705-.48.956-.32.252-.701.394-1.145.428l-.453.025h-4.05a.855.855 0 0 0-.106.012.862.862 0 0 1-.107.013c-.39 0-.755-.16-1.092-.478-.125-.134-.96-1.123-2.505-2.967a1.387 1.387 0 0 0-.373-.327c-.07.268-.164.654-.28 1.157-.115.503-.2.863-.253 1.081l-.08.427c-.177.587-.55.94-1.119 1.057l-.373.025h-2.61c-1.475 0-2.945-.637-4.41-1.911-1.466-1.275-2.784-2.922-3.957-4.942-1.172-2.02-2.264-4.372-3.277-7.054a1.916 1.916 0 0 1-.133-.73Zm16.013 6.513c-.373 0-.71-.096-1.013-.29-.302-.192-.453-.456-.453-.791V4.987c0-.336-.089-.575-.266-.717-.178-.143-.489-.214-.933-.214l-1.518.05c-.764 0-1.341.126-1.732.378.781.352 1.172.922 1.172 1.71v4.426a1.5 1.5 0 0 1-.533 1.044 1.59 1.59 0 0 1-1.066.414c-.532 0-.94-.243-1.225-.729C8.56 9.371 7.53 7.493 6.856 5.716l-.24-.654-3.544-.025c-.231 0-.36.013-.386.038-.027.025-.04.096-.04.213 0 .151.017.31.053.478l.56 1.409c1.491 3.638 3.112 6.505 4.862 8.6 1.75 2.096 3.468 3.144 5.155 3.144h2.665c.106 0 .186-.03.24-.088.053-.06.097-.172.133-.34l.053-.251.506-2.213c.142-.302.267-.503.373-.604a.975.975 0 0 1 .693-.277c.426 0 .861.243 1.305.73l2.265 2.716c.142.218.293.327.453.327h4.396c.533 0 .8-.126.8-.378a.466.466 0 0 0-.08-.251l-3.864-4.552c-.302-.352-.453-.73-.453-1.131 0-.403.142-.788.427-1.157.23-.336.679-.893 1.345-1.673a37.63 37.63 0 0 0 1.745-2.187c.498-.68.826-1.296.986-1.849l.08-.327a.371.371 0 0 1-.027-.163.574.574 0 0 0-.026-.189h-4.183c-.267.1-.48.252-.64.453l-.16.478c-.444 1.156-1.607 2.942-3.49 5.356a1.892 1.892 0 0 1-1.305.503Z"/></g><defs><clipPath id="a"><path fill="#fff" d="M.5 0h28v22H.5z"/></clipPath></defs></svg>
